client/src/assets/generatedImages/sprite/TWITTER_ICON.svg

<svg viewBox="0 0 20 16"><g fill-rule="evenodd"><path d="M1,14.1538462 L1.95,14.1538462 C3.73125,14.1538462 5.5125,13.5384615 6.81875,12.4307692 C5.15625,12.4307692 3.73125,11.2 3.1375,9.6 C3.375,9.6 3.6125,9.72307692 3.85,9.72307692 C4.20625,9.72307692 4.5625,9.72307692 4.91875,9.6 C3.1375,9.23076923 1.7125,7.63076923 1.7125,5.66153846 C2.1875,5.90769231 2.78125,6.15384615 3.49375,6.15384615 C2.425,5.41538462 1.83125,4.18461538 1.83125,2.70769231 C1.83125,1.96923077 2.06875,1.23076923 2.30625,0.615384615 C4.20625,3.07692308 7.05625,4.67692308 10.38125,4.8 C10.2625,4.67692308 10.2625,4.30769231 10.2625,4.06153846 C10.2625,1.84615385 12.04375,0 14.18125,0 C15.25,0 16.31875,0.492307692 17.03125,1.23076923 C17.8625,1.10769231 18.8125,0.738461538 19.525,0.246153846 C19.2875,1.23076923 18.575,1.96923077 17.8625,2.46153846 C18.575,2.46153846 19.2875,2.21538462 20,1.84615385 C19.525,2.70769231 18.8125,3.32307692 18.1,3.93846154 L18.1,4.43076923 C18.1,9.84615385 14.18125,16 6.9375,16 C4.68125,16 2.6625,15.3846154 1,14.1538462 Z"/></g></svg>

<svg viewBox="0 0 20 16"><path fill-rule="evenodd" d="M1 14.2h1c1.7 0 3.5-.7 4.8-1.8-1.6 0-3-1.2-3.7-2.8l.8.1 1-.1a4 4 0 0 1-3.2-4c.5.3 1 .6 1.8.6a4 4 0 0 1-1.7-3.5c0-.7.3-1.5.5-2 2 2.4 4.8 4 8 4.1v-.7A4 4 0 0 1 14.2 0c1 0 2.1.5 2.8 1.2.9 0 1.8-.5 2.5-1A4 4 0 0 1 18 2.5c.7 0 1.4-.3 2.1-.7-.5 1-1.2 1.5-1.9 2.1v.5C18.2 9.8 14.2 16 7 16a10 10 0 0 1-5.9-1.8Z"/></svg>
